!!!OTL@@FUR: Ai pre&acirc;t la biele stele
!!!OTL@IT: Ho pregato la buona stella
!!!OTL@EN: I prayed to the good star
**kern
*clefG2
*k[f#]
*G:
*M3/4
*MM50
*>[A,A]
*>A
8.b
16g
=1
4.d
8c#
8d
8e
=2
4e
4d
8.d
16g
=3
4.b
8cc
8a
8b
=4
2g
8.b
16g
=5
4.d
8c#
8d
8e
=6
4e
4d
8.d
16g
=7
4.b
8cc
8a
8b
=8
2g
8.g
16g
=9
4.cc
8e
8e
8e
=10
4e
4d
8.d
16g
=11
4.b
8cc
8a
8b
=12
2g
==:|!
*-
!!!ARE: Friuli
!!!ENC: Craig Stuart Sapp
!!!END: 2002/02/05
!!!ref: @{OTL@@FUR}/@{OTL@EN}
